X:2
T:Kadril van Achtel
T:Tweede figuur (Avekat)
C:Trad.
O:Vlaanderen
A:Achtel
Z:Bart Vanhaverbeke 
L:1/8
M:C
K:C
P:Voorspel
E EF | G3 G ^FG AG | c4 z |]
P:A
E EF || G3 G ^FG AG | E4 C4 | D3 D DF E D | E4 C E EF |
G3 F ^FG AG |E4 c4 | B3 A GF ED | C2 E2 C2 z C |
CD EF G/^F/G/A/ G2 | G/^F/G/A/ G2 G/^F/G/A/ GG | CD EF G/^F/G/A/ GG/A/ |
GF ED C2 z C | CD EF G/^F/G/A/ G2 | G/^F/G/A/ G2 G/^F/G/A/ GG |
CD EF G/^F/G/A/ GG/A/ | GF ED CE GE | C4 z G GG |
F3 E DA AA | G3 E CG ^FG | B2 A2 G2 F2 | E4 z G GG |
F3 E DA AA | G3 E CG ^FG | B2 A2 F2 D2 |1 (C4 C) E EF :|2 (C4 C) |]
